X: 1
T: Maailman Matti
O: trad Finland
R: shottish
M: C
L: 1/8
K: C
CE | "C"G2 GA GF ED | C2 E2 G2 cc | "G7"BB GG A2 B2 | "C"c2 z4 |
w: 1.~Mi-n\"a Mat-ti* o-len t\"as-s\"a maa-il-massa vaik-ka var-rel-ta-ni ma-ta-la.
w: 2.~Ja jo pie-nes-t\"a po-jast' o-len is-ke-nyt min-n\"a kor-*til-la nak-ki-a.
CE | "C"G2 GA GF ED | C2 E2 G2 cc | "G7"B2 GG A2 B2 | "C"c2 z4 |
w: 1.~Ei-k\"a ilo-ja-ni mu-re-hik-si muut-taa voi t\"a-m\"a maa-il-ma ka-ta-la.
w: 2.~Vaik-ka pap-pa ja mam-*ma ne toi-voi-vat t\"as-t\"a po-jas-ta pap-pi-a.
y2c2 | "F"A2 FF A2 c2 | "C"G4 z2 GG | "G7"F2 DE F2 A2 | "C"G4 z2 ||
w: 1.~En luotu o-le it-ke-m\"a\"an, en-k\"a ohdak-kei-ta kit-ke-m\"a\"an.
w: 2.~Sit\"a mam-ma-ni su-ri, hei, kun* pap-pi-a tul-lut ei.
|: GG | "C"c2 c2 e2 cB | "F"AB cA "C"G2 EF | "G"G2 AF E2 D2 | "C"C4 z2 :|
w: ~Hu-raa, hur-raa hoi, mi-nun lau-*lu-ni soi n\"ail-l\"a maa-il-man mark-ki-noill'.
